X:22601
T:Durham Rangers
R:Reel
B:Tuneworks Tunebook 2 (https://www.tuneworks.co.uk/)
G:Tuneworks
Z:Jon Warbrick <jon.warbrick@googlemail.com>
M:4/4
L:1/8
K:D
|: FG | "D" ABAF A2 de | fgfe d2 A2 | "G" BcdB ABAF | "A" G2 E2 E2 FG |
"D" ABAF A2 de | fgfe d2 A2 | "G" BcdB"A" ABAG | "D" F2 D2 D2 :|
|: ag | "D" fefg afdf | "A" edcB Adfa | "G" g2 bg"D" f2 af | "A" g2 e2 e2 FG |
"D" ABAF A2 de | fgfe d2 A2 | "G" BcdB"A" ABAG | "D" F2 D2 D2 :|